X: 2
T: Porthole Of The Kelp
R: reel
M: 4/4
L: 1/8
K: Ddor
F2 DE FEDE|FEDF ECCE|F2 DE FGAG|FDEC A,DDE|
F2 DE FGAB|cAGF EDCE|DEFG AddB|1 cAGE EDDE:|2 cAGE EDDc||
d2 Ad dcAG|F2DF EC C2|d2 Ad dcAG|ABcA d2 de|
fd ed dcAG|EGcG EDCE|DEFG AddB|1 cAGE EDDc:|2 cAGE EDDE||

